PortableApps/LibreOfficePortable/App/libreoffice/help/media/icon-themes/formula/res/refinp1.svg

<svg viewBox="0 0 16 16" xmlns="http://www.w3.org/2000/svg"><path d="m11.484184 8.0000557a.49947237.49960183 0 0 0 -.394076.2029429l-2.9438609 2.9485264a.50005957.50018918 0 1 0 .708165.706399l2.1401039-2.1445619.0078 5.7799719a.49947237.49960183 0 1 0 .998845 0l-.0078-5.7799719 2.147906 2.1445619a.49947237.49960183 0 1 0 .704263-.70835l-2.957516-2.9543814a.49947237.49960183 0 0 0 -.40383-.1951369z" fill="#4d82b8" fill-rule="evenodd"/><path d="m3 5v3h6.8808594l.5019526-.5039062-.097656.1132812c.277368-.3764145.716-.602325 1.183594-.609375.473735-.0076897.924458.2101832 1.212891.5859375l-.085938-.0976563.404297.4042969v-2.8925781z" fill="#fff"/><path d="m3 2c-.554 0-1 .446-1 1v5c0 .554.446 1 1 1h5.8828125l.9980469-1h-6.8808594v-3h10v2.8925781l1 1v-5.8925781c0-.554-.446-1-1-1z" fill="#808080"/></svg>

<?xml version="1.0" encoding="UTF-8" standalone="no"?>
<svg
   xmlns:dc="http://purl.org/dc/elements/1.1/"
   xmlns:cc="http://creativecommons.org/ns#"
   xmlns:rdf="http://www.w3.org/1999/02/22-rdf-syntax-ns#"
   xmlns:svg="http://www.w3.org/2000/svg"
   xmlns="http://www.w3.org/2000/svg"
   xmlns:sodipodi="http://sodipodi.sourceforge.net/DTD/sodipodi-0.dtd"
   xmlns:inkscape="http://www.inkscape.org/namespaces/inkscape"
   viewBox="0 0 16 16"
   id="svg2"
   version="1.1"
   inkscape:version="0.91 r13725"
   sodipodi:docname="refinp1.svg">
  <metadata
     id="metadata14">
    <rdf:RDF>
      <cc:Work
         rdf:about="">
        <dc:format>image/svg+xml</dc:format>
        <dc:type
           rdf:resource="http://purl.org/dc/dcmitype/StillImage" />
      </cc:Work>
    </rdf:RDF>
  </metadata>
  <defs
     id="defs12" />
  <sodipodi:namedview
     pagecolor="#ffffff"
     bordercolor="#666666"
     borderopacity="1"
     objecttolerance="10"
     gridtolerance="10"
     guidetolerance="10"
     inkscape:pageopacity="0"
     inkscape:pageshadow="2"
     inkscape:window-width="2560"
     inkscape:window-height="1381"
     id="namedview10"
     showgrid="false"
     inkscape:zoom="41.7193"
     inkscape:cx="5.8717845"
     inkscape:cy="3.8014283"
     inkscape:window-x="0"
     inkscape:window-y="30"
     inkscape:window-maximized="1"
     inkscape:current-layer="svg2" />
  <path
     d="m11.484184 8.0000557a.49947237.49960183 0 0 0 -.394076.2029429l-2.9438609 2.9485264a.50005957.50018918 0 1 0 .708165.706399l2.1401039-2.1445619.0078 5.7799719a.49947237.49960183 0 1 0 .998845 0l-.0078-5.7799719 2.147906 2.1445619a.49947237.49960183 0 1 0 .704263-.70835l-2.957516-2.9543814a.49947237.49960183 0 0 0 -.40383-.1951369z"
     fill="#4d82b8"
     fill-rule="evenodd"
     id="path4" />
  <path
     d="M 3 5 L 3 8 L 9.8808594 8 L 10.382812 7.4960938 L 10.285156 7.609375 C 10.562524 7.2329605 11.001156 7.00705 11.46875 7 C 11.942485 6.9923103 12.393208 7.2101832 12.681641 7.5859375 L 12.595703 7.4882812 L 13 7.8925781 L 13 5 L 3 5 z "
     id="path6"
     style="fill:#ffffff;fill-opacity:1" />
  <path
     style="fill:#808080"
     d="M 3 2 C 2.446 2 2 2.446 2 3 L 2 8 C 2 8.554 2.446 9 3 9 L 8.8828125 9 L 9.8808594 8 L 3 8 L 3 5 L 13 5 L 13 7.8925781 L 14 8.8925781 L 14 3 C 14 2.446 13.554 2 13 2 L 3 2 z "
     id="path8" />
</svg>
